content/img/x/ico-forward.svg

<svg width="8" height="13" viewBox="0 0 8 13" fill="none" xmlns="http://www.w3.org/2000/svg">
<path d="M5.58837 6.28337L0.293686 1.52991C-0.0978954 1.17807 -0.0978954 0.609155 0.293686 0.261067C0.685268 -0.0870222 1.31846 -0.0870222 1.71004 0.261067L7.70874 5.64708C8.08782 5.98769 8.09616 6.53415 7.7379 6.88598L1.71421 12.3094C1.51842 12.4853 1.26014 12.5714 1.00603 12.5714C0.75192 12.5714 0.493643 12.4853 0.297852 12.3094C-0.0937293 11.9576 -0.0937293 11.3887 0.297852 11.0406L5.58837 6.28337Z" fill="#4B8FFF"/>
</svg>

<svg width="8" height="13" viewBox="0 0 8 13" fill="none" xmlns="http://www.w3.org/2000/svg"><path d="M5.588 6.283L.294 1.53a.832.832 0 010-1.269 1.091 1.091 0 011.416 0l5.999 5.386c.379.34.387.887.029 1.239l-6.024 5.423a1.06 1.06 0 01-.708.262 1.06 1.06 0 01-.708-.262.832.832 0 010-1.268l5.29-4.758z" fill="#4B8FFF"/></svg>
